X: 75
T: Dinky's Reel
T: Reel, A Mixolydian
L: 1/16
M: 2/2
K: A Mixolydian
|: e2d2| c4B2c2 A2B2c2d2| e2g2f2d2 e2d2B2d2| g2B2 B1B1B2 g2B2a2B2| g2B2 B1B1B2 g2f2e2d2| 
c4B2c2 A2B2c2d2| e2g2f2d2 e2d2B2d2| g2f2g2d2 e2f2e2d2| c2A2B2c2 A4:| 
|: e2g2| a2A2 A1A1A2 a2A2b2A2| a2A2 A1A1A2 a2g2e2f2| g2B2 B1B1B2 g2B2a2B2| g2B2 B1B1B2 g2f2e2g2| 
[1 a2A2 A1A1A2 a2A2b2A2| a2A2 A1A1A2 a2g2e2f2| g2f2g2d2 e2f2e2d2| c2A2B2c2 A4:| 
| [2 a2A2 A1A1A2 g2A2 A1A1A2| f2A2 A1A1A2 e4e2f2| g2f2g2d2 e2f2e2d2| c2A2B2c2 A4||
